svg/fluentui-system-icons/ic_fluent_cube_24_regular.svg

<svg width="24" height="24" viewBox="0 0 24 24" fill="none" xmlns="http://www.w3.org/2000/svg">
<path d="M6.04873 7.98306C6.19566 7.59578 6.62872 7.40094 7.016 7.54788L12 9.43876L16.9839 7.54788C17.3712 7.40094 17.8043 7.59578 17.9512 7.98306C18.0981 8.37034 17.9033 8.8034 17.516 8.95033L12.75 10.7585V16.2491C12.75 16.6634 12.4142 16.9991 12 16.9991C11.5858 16.9991 11.25 16.6634 11.25 16.2491V10.7586L6.48392 8.95033C6.09664 8.8034 5.9018 8.37034 6.04873 7.98306ZM10.5911 2.51106C11.4947 2.14475 12.5053 2.14475 13.4089 2.51106L20.9075 5.55102C21.5679 5.81876 22 6.4602 22 7.17282V16.8255C22 17.5381 21.5679 18.1796 20.9075 18.4473L13.4089 21.4873C12.5053 21.8536 11.4947 21.8536 10.5911 21.4873L3.09252 18.4473C2.43211 18.1796 2 17.5381 2 16.8255V7.17282C2 6.4602 2.43211 5.81876 3.09252 5.55102L10.5911 2.51106ZM12.8453 3.90116C12.3032 3.68138 11.6968 3.68138 11.1547 3.90116L3.65607 6.94113C3.56173 6.97938 3.5 7.07102 3.5 7.17282V16.8255C3.5 16.9273 3.56173 17.019 3.65607 17.0572L11.1547 20.0972C11.6968 20.317 12.3032 20.317 12.8453 20.0972L20.3439 17.0572C20.4383 17.019 20.5 16.9273 20.5 16.8255V7.17282C20.5 7.07102 20.4383 6.97938 20.3439 6.94113L12.8453 3.90116Z" fill="#212121"/>
</svg>

<svg xmlns="http://www.w3.org/2000/svg" width="24" height="24"><path d="M6.049 7.983a.75.75 0 0 1 .967-.435L12 9.438l4.984-1.89a.75.75 0 1 1 .532 1.402l-4.766 1.81v5.49a.75.75 0 1 1-1.5 0v-5.49L6.484 8.95a.75.75 0 0 1-.435-.967Zm4.542-5.472a3.75 3.75 0 0 1 2.818 0l7.498 3.04A1.75 1.75 0 0 1 22 7.173v9.653a1.75 1.75 0 0 1-1.093 1.621l-7.498 3.04a3.75 3.75 0 0 1-2.818 0l-7.498-3.04A1.75 1.75 0 0 1 2 16.826V7.173A1.75 1.75 0 0 1 3.093 5.55l7.498-3.04Zm2.254 1.39a2.25 2.25 0 0 0-1.69 0l-7.499 3.04a.25.25 0 0 0-.156.232v9.653a.25.25 0 0 0 .156.231l7.499 3.04a2.25 2.25 0 0 0 1.69 0l7.499-3.04a.25.25 0 0 0 .156-.231V7.173a.25.25 0 0 0-.156-.232l-7.499-3.04Z"/></svg>
